src/assets/svg/icons/fa/nuevos/classic/light/face-woozy classic light.svg

<svg xmlns="http://www.w3.org/2000/svg" viewBox="0 0 512 512"><!--! Font Awesome Pro 6.4.0 by @fontawesome - https://fontawesome.com License - https://fontawesome.com/license (Commercial License) Copyright 2023 Fonticons, Inc. --><path d="M480 256A224 224 0 1 0 32 256a224 224 0 1 0 448 0zM0 256a256 256 0 1 1 512 0A256 256 0 1 1 0 256zM205.3 120.9c-28 42-69.6 64.1-88.3 70.3c-8.4 2.8-17.4-1.7-20.2-10.1s1.7-17.4 10.1-20.2c13.4-4.5 48.5-22.9 71.7-57.7c4.9-7.4 14.8-9.3 22.2-4.4s9.3 14.8 4.4 22.2zm6.6 118.6l-64 16c-8.6 2.1-17.3-3.1-19.4-11.6s3.1-17.3 11.6-19.4l64-16c8.6-2.1 17.3 3.1 19.4 11.6s-3.1 17.3-11.6 19.4zM411.3 347.3L372 386.6c-13.7 13.7-32.3 21.4-51.7 21.4c-13.7 0-27.1-3.8-38.7-11.1L267.4 388c-18.2-11.4-40.8-13.4-60.7-5.4c-30.4 12.2-64.8 8.6-92-9.6l-11.5-7.7c-7.4-4.9-9.3-14.8-4.4-22.2s14.8-9.3 22.2-4.4l11.5 7.7c18.5 12.3 41.8 14.7 62.4 6.5c29.4-11.8 62.7-8.8 89.6 8l14.2 8.9c6.5 4.1 14.1 6.2 21.8 6.2c10.9 0 21.3-4.3 29-12l39.3-39.3c6.2-6.2 16.4-6.2 22.6 0s6.2 16.4 0 22.6zM327.7 169.9c-4.5 8.9-7.7 22.4-7.7 38.1s3.2 29.2 7.7 38.1c2.2 4.5 4.5 7.2 6.2 8.7c.8 .7 1.4 1 1.7 1.1c.2 .1 .3 .1 .3 .1s.1 0 .1 0s0 0 0 0s0 0 .1 0c0 0 .1 0 .3-.1c.3-.1 .9-.4 1.7-1.1c1.7-1.5 4-4.2 6.2-8.7c4.5-8.9 7.7-22.4 7.7-38.1s-3.2-29.2-7.7-38.1c-2.2-4.5-4.5-7.2-6.2-8.7c-.8-.7-1.4-1-1.7-1.1c-.2-.1-.3-.1-.3-.1l0 0 0 0s0 0 0 0s0 0 0 0c0 0-.1 0-.3 .1c-.3 .1-.9 .4-1.7 1.1c-1.7 1.5-4 4.2-6.2 8.7zm-28.6-14.3c6.6-13.3 18.8-27.6 36.9-27.6s30.3 14.3 36.9 27.6c7.1 14.2 11.1 32.8 11.1 52.4s-3.9 38.2-11.1 52.4C366.3 273.7 354.2 288 336 288s-30.3-14.3-36.9-27.6C291.9 246.2 288 227.6 288 208s3.9-38.2 11.1-52.4z"/></svg>

<svg xmlns="http://www.w3.org/2000/svg" viewBox="0 0 512 512"><path d="M117.1 191.2C108.7 193.1 99.62 189.4 96.82 181.1C94.03 172.7 98.56 163.6 106.9 160.8C120.3 156.4 155.5 137.1 178.7 103.1C183.6 95.77 193.5 93.79 200.9 98.69C208.2 103.6 210.2 113.5 205.3 120.9C177.3 162.8 135.7 184.1 117.1 191.2zM147.9 255.5C139.3 257.7 130.6 252.5 128.5 243.9C126.3 235.3 131.5 226.6 140.1 224.5L204.1 208.5C212.7 206.3 221.4 211.5 223.5 220.1C225.7 228.7 220.5 237.4 211.9 239.5L147.9 255.5zM372 386.6C358.3 400.3 339.7 408 320.4 408C306.7 408 293.3 404.2 281.6 396.9L267.4 387.1C249.2 376.6 226.6 374.6 206.7 382.6C176.3 394.7 141.9 391.1 114.6 372.1L103.1 365.3C95.77 360.4 93.79 350.5 98.69 343.1C103.6 335.8 113.5 333.8 120.9 338.7L132.4 346.4C150.8 358.7 174.2 361.1 194.8 352.9C224.2 341.1 257.5 344.1 284.4 360.9L298.6 369.8C305.1 373.8 312.7 376 320.4 376C331.3 376 341.7 371.7 349.4 363.1L388.7 324.7C394.9 318.4 405.1 318.4 411.3 324.7C417.6 330.9 417.6 341.1 411.3 347.3L372 386.6zM299.1 155.6C305.7 142.3 317.8 128 336 128C354.2 128 366.3 142.3 372.9 155.6C380.1 169.8 384 188.4 384 208C384 227.6 380.1 246.2 372.9 260.4C366.3 273.7 354.2 288 336 288C317.8 288 305.7 273.7 299.1 260.4C291.9 246.2 288 227.6 288 208C288 188.4 291.9 169.8 299.1 155.6zM327.7 169.9C323.2 178.8 320 192.3 320 208C320 223.7 323.2 237.2 327.7 246.1C329.9 250.6 332.2 253.3 333.9 254.8C334.7 255.5 335.3 255.8 335.6 255.9C335.8 255.1 335.9 255.1 335.9 255.1L336 256L336 255.1L336.1 255.1C336.1 255.1 336.2 255.1 336.4 255.9C336.7 255.8 337.3 255.5 338.1 254.8C339.8 253.3 342.1 250.6 344.3 246.1C348.8 237.2 352 223.7 352 208C352 192.3 348.8 178.8 344.3 169.9C342.1 165.4 339.8 162.7 338.1 161.2C337.3 160.5 336.7 160.2 336.4 160.1C336.2 160 336.1 160 336.1 160L336 160L336 159.1L335.1 160L335.9 160C335.9 160 335.8 160 335.6 160.1C335.3 160.2 334.7 160.5 333.9 161.2C332.2 162.7 329.9 165.4 327.7 169.9V169.9zM512 256C512 397.4 397.4 512 256 512C114.6 512 0 397.4 0 256C0 114.6 114.6 0 256 0C397.4 0 512 114.6 512 256zM256 32C132.3 32 32 132.3 32 256C32 379.7 132.3 480 256 480C379.7 480 480 379.7 480 256C480 132.3 379.7 32 256 32z"/></svg>
